src/img/chevron.svg

<svg height="11" viewBox="0 0 7 11" width="7" xmlns="http://www.w3.org/2000/svg"><path d="m306.653203 23.3280818c-.22179-.2100547-.522751-.3280818-.836584-.3280818-.313834 0-.614794.1180271-.836584.3280818l-4.633238 4.3850639c-.222037.2098211-.346797.4945399-.346797.7914369 0 .2968971.12476.5816158.346797.7914369l4.635208 4.3831995c.463109.4305484 1.20656.4272775 1.665416-.007327.458855-.4346046.461436-1.1379385.005782-1.5755468l-3.797639-3.5926948 3.797639-3.5926948c.222037-.2098211.346797-.4945398.346797-.7914369 0-.296897-.12476-.5816158-.346797-.7914369z" fill="#fff" transform="matrix(-1 0 0 -1 307 34)"/></svg>

<?xml version="1.0" encoding="UTF-8"?>
<svg width="7px" height="11px" viewBox="0 0 7 11" version="1.1" xmlns="http://www.w3.org/2000/svg" xmlns:xlink="http://www.w3.org/1999/xlink">
    <!-- Generator: Sketch 49.2 (51160) - http://www.bohemiancoding.com/sketch -->
    <title>chevron</title>
    <desc>Created with Sketch.</desc>
    <defs></defs>
    <g id="Page-1" stroke="none" stroke-width="1" fill="none" fill-rule="evenodd">
        <g id="1-HOMEPAGE" transform="translate(-1101.000000, -701.000000)" fill="#FFFFFF" fill-rule="nonzero">
            <g id="Group-19" transform="translate(713.000000, 102.000000)">
                <g id="Group-6" transform="translate(0.000000, 5.000000)">
                    <g id="Group-20">
                        <g id="Group-4" transform="translate(88.000000, 571.000000)">
                            <path d="M306.653203,23.3280818 C306.431413,23.1180271 306.130452,23 305.816619,23 C305.502785,23 305.201825,23.1180271 304.980035,23.3280818 L300.346797,27.7131457 C300.12476,27.9229668 300,28.2076856 300,28.5045826 C300,28.8014797 300.12476,29.0861984 300.346797,29.2960195 L304.982005,33.679219 C305.445114,34.1097674 306.188565,34.1064965 306.647421,33.671892 C307.106276,33.2372874 307.108857,32.5339535 306.653203,32.0963452 L302.855564,28.5036504 L306.653203,24.9109556 C306.87524,24.7011345 307,24.4164158 307,24.1195187 C307,23.8226217 306.87524,23.5379029 306.653203,23.3280818 Z" id="chevron" transform="translate(303.500000, 28.500000) rotate(-180.000000) translate(-303.500000, -28.500000) "></path>
                        </g>
                    </g>
                </g>
            </g>
        </g>
    </g>
</svg>
